X:1
T:Spartanburg
T:F Major                                William Walker, 1835
T:Transcribed from Southern Harmony , 1835; Counter by B. C. Johnston, 2018.
T:Charles Wesley, 1747 Hymna for Those That Seek, no. 16         66. 66. 86. 86.
%%score [ 1 2 3 4 ]
L:1/8
Q:1/4=120
M:4/4
K:F
V:1 treble nm="Tr." snm="Tr."
V:2 treble nm="C." snm="A."
V:3 treble-8 nm="T." snm="T."
V:4 bass nm="B." snm="B."
V:1
"_1. Ye   simple  souls,  that   stray   Far    from the path of peace, That  un –fre –quen –ted    way  To  life  and   hap–pi–ness:        How long will ye your  folly love, And\n2. Madness  and  mi – se  –  ry      Ye  count  our  life  be–neath,  And  nothing  great  can    see   Or  glorious  in our death:         As  born  to  suffer and to grieve  Be–" A4 | %1
 A2 c2 c2 A2 | G6 AB | c2 c2 f2 d2 | c4 f4 | c2 c2 A2 d2 | c4 c4 | d2 d2 c2 G2 | A8 |: z4 f4 | %10
 c2 c2 c2 A2 | G2 G2 A2 c2 | %12
"_1. throng the downward road,  And  hate  the  wisdom from above,    And  mock the sons of God?\n2. –neath your feet we lie,     And   ut – ter – ly con–demn’d we live,    And  un – la –men –ted  die." f2 c2 d2 d2 | %13
 c4 F4 | G2 G2 A2 A2 | G2 A2 c4 | c4 A A3 |1 A2 c2 c4 :|2 A2 c2 c4- | c4 |] %20
V:2
"_3. Poor pensive sojourners,  O’erwhelm’d with  griefs  and  woes,  Perplex’d with needless fears,  And pleasure’s mortal foes;       More irksome than a gaping tomb  Our\n4. So wretched  and  ob  – scure,   The  men  whom  ye  des–pise,  So  foolish,  weak,  and  poor  A – bove your scorn we rise:     Our conscience in the Holy Ghost  Can" c4 | %1
 A2 G2 FG A2 | G6 FG | A2 c2 BA GA | G4 c4 | F2 G2 AG AG | F4 E4 | F2 F2 E2 G2 | A8 |: z4 F4 | %10
 A2 c2 c2 A2 | G2 c2 A2 A2 | %12
"_3. sight  ye  cannot   bear,   Wrapped  in  the  me–lan–cho–ly  gloom     Of   fan – ci – ful  des – pair.\n4. wit – ness better things,   For  he  whose  blood  is  all  our   boast   Hath made us priests and kings." A2 A2 B2 A2 | %13
 c4 A4 | G2 G2 F2 A2 | G2 A2 G4 | F4 A A3 |1 c2 G2 F4 :|2 c2 G2 F4- | F4 |] %20
V:3
"_5.  O  do  not  be  discouraged,    For       Jesus    is    your  friend,  And  if  you  lack for knowledge,  He'll not refuse to lend,        No,  neither will he upbraid you,  Tho'\n6. And when the last loud trumpet  Shall  rend  the vaulted skies,  And bid the entombed millions  From their cold beds arise,  Our ransomed dust will be revived, Bright" c4 | %1
 F2 G2 AG AB | c6 FG | A2 A2 BA GF | G4 c4 | F2 G2 AG AB | c4 c4 | f2 df e2 d2 | c8 |: z4 c4 | %10
 f2 f2 f2 ge | c2 c2 c2 A2 | %12
"_5. of – ten  you  re – quest,  He'll  give  you  the  grace  to  conquer,      And  take  you  up   to   rest.\n6. beau–ties  shall  put  on,  And   soar   to    the bles –sed  mansions    Where our Redeemer’s gone." d2 c2 B2 A2 | %13
 G4 A4 | c2 c2 f2 d2 | c2 A2 G4 | F4 A d3 |1 A2 G2 F4 :|2 A2 G2 F4- | F4 |] %20
V:4
"_7. Our eyes shall then with rapture  The Savior’s  face  be – hold;  Our  feet, no more diverted,  Shall walk the streets of gold;     Our ears shall hear with transport  The" F,4 | %1
 F,2 C,2 F,2 D,2 | C,6 A,G, | F,2 F,2 F,A, G,F, | G,4 F,4 | F,2 E,2 D,2 D,2 | C,4 C,4 | %7
 F,2 F,2 G,2 G,2 | F,8 |: z4 F,4 | F,2 F,2 F,2 D,2 | C,2 C,2 F,2 F,2 | %12
"_7. hosts  ce–les–tial  sing;   Our  tongues shall all chant the glo–ries      Of   our   im–mor–tal  King." A,2 A,2 G,2 F,2 | %13
 C,4 A,4 | G,2 G,2 F,2 F,2 | G,2 A,2 G,4 | F,4 D, D,3 |1 C,2 C,2 F,4 :|2 C,2 C,2 F,4- | F,4 |] %20

